styles/3/Numix/32/places/default-folder-music.svg

<?xml version="1.0" encoding="UTF-8" standalone="no"?>
<!-- Created with Inkscape (http://www.inkscape.org/) -->

<svg
   xmlns:dc="http://purl.org/dc/elements/1.1/"
   xmlns:cc="http://creativecommons.org/ns#"
   xmlns:rdf="http://www.w3.org/1999/02/22-rdf-syntax-ns#"
   xmlns:svg="http://www.w3.org/2000/svg"
   xmlns="http://www.w3.org/2000/svg"
   xmlns:sodipodi="http://sodipodi.sourceforge.net/DTD/sodipodi-0.dtd"
   xmlns:inkscape="http://www.inkscape.org/namespaces/inkscape"
   width="32"
   height="32"
   id="svg2"
   version="1.1"
   inkscape:version="0.91 r"
   sodipodi:docname="default-folder-music.svg"
   inkscape:export-filename="/media/Data/Main/Visuals/Icons/Numix/Desktop/repos/numix-wiki/Gjorgi/Numix-folders/48/New/folder-144.png"
   inkscape:export-xdpi="270"
   inkscape:export-ydpi="270">
  <defs
     id="defs4" />
  <sodipodi:namedview
     id="base"
     pagecolor="#ffffff"
     bordercolor="#666666"
     borderopacity="1.0"
     inkscape:pageopacity="0.0"
     inkscape:pageshadow="2"
     inkscape:zoom="24.994166"
     inkscape:cx="5.6111938"
     inkscape:cy="10.509776"
     inkscape:document-units="px"
     inkscape:current-layer="layer1"
     showgrid="true"
     inkscape:window-width="1280"
     inkscape:window-height="998"
     inkscape:window-x="0"
     inkscape:window-y="0"
     inkscape:window-maximized="1"
     showguides="true"
     inkscape:guide-bbox="true">
    <inkscape:grid
       type="xygrid"
       id="grid2985"
       empspacing="5"
       visible="true"
       enabled="true"
       snapvisiblegridlinesonly="true" />
  </sodipodi:namedview>
  <metadata
     id="metadata7">
    <rdf:RDF>
      <cc:Work
         rdf:about="">
        <dc:format>image/svg+xml</dc:format>
        <dc:type
           rdf:resource="http://purl.org/dc/dcmitype/StillImage" />
        <dc:title />
      </cc:Work>
    </rdf:RDF>
  </metadata>
  <g
     inkscape:label="Layer 1"
     inkscape:groupmode="layer"
     id="layer1"
     transform="translate(0,-1020.3622)">
    <rect
       style="fill:#ea9036;fill-opacity:1;stroke:none"
       id="rect3757"
       width="26"
       height="10"
       x="3"
       y="1026.3622" />
    <path
       style="fill:#ea9036;fill-opacity:1;stroke:none"
       d="m 6,1026.3622 c 0,-1 0,-2 1.454545,-2 l 5.09091,0 c 1.454545,0 1.454545,1 1.454545,2 l 0,1 -8,0 z"
       id="path3759"
       inkscape:connector-curvature="0"
       sodipodi:nodetypes="ccccccc" />
    <path
       style="fill:#95989f;fill-opacity:1;stroke:none"
       d="m 5,1028.3622 22,0 0,4.9677 -22,0 z"
       id="path3765"
       inkscape:connector-curvature="0" />
    <rect
       y="1027.3622"
       x="7"
       height="12.999977"
       width="19"
       id="rect3763"
       style="fill:#d8d8da;fill-opacity:1;stroke:none" />
    <rect
       style="fill:#f9f9f9;fill-opacity:1;stroke:none"
       id="rect3761"
       width="19"
       height="12.999977"
       x="6"
       y="1029.3622" />
    <path
       style="fill:#f2bb64;fill-opacity:1;stroke:none"
       d="m 1,1030.3622 30,0 -2.142857,18 -25.7142859,0 z"
       id="path2987"
       inkscape:connector-curvature="0"
       sodipodi:nodetypes="ccccc" />
    <path
       style="opacity:1.0;fill:#b58c4b;fill-opacity:1;stroke:none"
       d="M 14 13 C 12.892 13 12 13.858085 12 14.9375 L 12 15.0625 C 12 15.163928 12.016059 15.246585 12.03125 15.34375 C 12.022242 15.399013 12 15.44198 12 15.5 L 12 21 C 10.895431 21 10 21.895431 10 23 C 10 24.104569 10.895431 25 12 25 C 13.104569 25 14 24.104569 14 23 L 14 17 L 20 17 L 20 21 C 18.895431 21 18 21.895431 18 23 C 18 24.104569 18.895431 25 20 25 C 21.104569 25 22 24.104569 22 23 L 22 15.0625 L 22 15 C 22 14.978275 22.001351 14.958873 22 14.9375 C 22 13.858085 21.108 13 20 13 L 14 13 z "
       transform="translate(0,1020.3622)"
       id="path3001" />
  </g>
</svg>

<!-- Created with Inkscape (http://www.inkscape.org/) -->
<svg xmlns="http://www.w3.org/2000/svg" viewBox="0 0 32 32">
 <g transform="translate(0,-1020.3622)">
  <rect width="26" height="10" x="3" y="1026.36" style="fill:#ea9036;fill-opacity:1;stroke:none"/>
  <path d="m 6 1026.36 c 0 -1 0 -2 1.455 -2 l 5.091 0 c 1.455 0 1.455 1 1.455 2 l 0 1 -8 0 z" style="fill:#ea9036;fill-opacity:1;stroke:none"/>
  <path d="m 5 1028.36 22 0 0 4.968 -22 0 z" style="fill:#95989f;fill-opacity:1;stroke:none"/>
  <rect y="1027.36" x="7" height="13" width="19" style="fill:#d8d8da;fill-opacity:1;stroke:none"/>
  <rect width="19" height="13" x="6" y="1029.36" style="fill:#f9f9f9;fill-opacity:1;stroke:none"/>
  <path d="m 1 1030.36 30 0 -2.143 18 -25.714 0 z" style="fill:#f2bb64;fill-opacity:1;stroke:none"/>
  <path d="m 14 13 c -1.108 0 -2 0.858 -2 1.938 l 0 0.125 c 0 0.101 0.016 0.184 0.031 0.281 c -0.009 0.055 -0.031 0.098 -0.031 0.156 l 0 5.5 c -1.105 0 -2 0.895 -2 2 c 0 1.105 0.895 2 2 2 c 1.105 0 2 -0.895 2 -2 l 0 -6 l 6 0 l 0 4 c -1.105 0 -2 0.895 -2 2 c 0 1.105 0.895 2 2 2 c 1.105 0 2 -0.895 2 -2 l 0 -7.938 l 0 -0.063 c 0 -0.022 0.001 -0.041 0 -0.063 c 0 -1.079 -0.892 -1.938 -2 -1.938 l -6 0 z" transform="translate(0,1020.3622)" style="fill:#b58c4b;opacity:1;fill-opacity:1;stroke:none"/>
 </g>
</svg>
